X: 63
T: Maicai
%%abc-version 2.0
%%abcx-abcm2ps-target-version 5.9.1 (29 Sep 2008)
%%abc-creator hum2abc beta
%%abcx-conversion-date 2013/10/02 07:52:29
%%abc-edited-by Helmut Schaffrath
%%humdrum-veritas 2173109003
%%humdrum-veritas-data 1894174599
%%continueall 1
%%barnumbers 0
L: 1/16
M: 2/4
K: F
f2 c c f2 c2 [I:setbarnb 1]| 
c B c d c2 G2 | 
c2 G2 c2 A G | 
F2> A2G4 | 
F D F2 c2 A c | 
G2 c2 G2 F D | 
C2 F2 G F F D | 
C2> B,2C4 | 
A G F AG4 | 
F D F2 c2 A c | 
G2 c2 G2 F D | 
C2 F2 G F F D | 
C2> B,2C4 |]  



